war/images/icons/left.svg

<?xml version="1.0" encoding="UTF-8" standalone="no"?>
<!-- Created with Inkscape (http://www.inkscape.org/) -->

<svg
   xmlns:dc="http://purl.org/dc/elements/1.1/"
   xmlns:cc="http://creativecommons.org/ns#"
   xmlns:rdf="http://www.w3.org/1999/02/22-rdf-syntax-ns#"
   xmlns:svg="http://www.w3.org/2000/svg"
   xmlns="http://www.w3.org/2000/svg"
   xmlns:xlink="http://www.w3.org/1999/xlink"
   xmlns:sodipodi="http://sodipodi.sourceforge.net/DTD/sodipodi-0.dtd"
   xmlns:inkscape="http://www.inkscape.org/namespaces/inkscape"
   height="128"
   id="svg3186"
   inkscape:output_extension="org.inkscape.output.svg.inkscape"
   inkscape:version="0.48.4 r9939"
   sodipodi:docname="left2.svg"
   sodipodi:modified="true"
   sodipodi:version="0.32"
   version="1.0"
   width="128">
  <metadata
     id="metadata3275">
    <rdf:RDF>
      <cc:Work
         rdf:about="">
        <dc:title></dc:title>
        <dc:description />
        <dc:subject>
          <rdf:Bag>
            <rdf:li>unsorted</rdf:li>
          </rdf:Bag>
        </dc:subject>
        <dc:publisher>
          <cc:Agent
             rdf:about="http://www.openclipart.org/">
            <dc:title>Open Clip Art Library, Source: Oxygen Icons, Source: Oxygen Icons, Source: Oxygen Icons, Source: Oxygen Icons</dc:title>
          </cc:Agent>
        </dc:publisher>
        <dc:creator>
          <cc:Agent>
            <dc:title />
          </cc:Agent>
        </dc:creator>
        <dc:rights>
          <cc:Agent>
            <dc:title />
          </cc:Agent>
        </dc:rights>
        <dc:date />
        <dc:format>image/svg+xml</dc:format>
        <dc:type
           rdf:resource="http://purl.org/dc/dcmitype/StillImage" />
        <cc:license
           rdf:resource="http://creativecommons.org/licenses/by-sa/3.0/ or http://creativecommons.org/licenses/LGPL/2.1/" />
        <dc:language>en</dc:language>
      </cc:Work>
    </rdf:RDF>
  </metadata>
  <defs
     id="defs3188">
    <radialGradient
       cx="53.1978"
       cy="59.1865"
       gradientTransform="matrix(0.6667,0,0,0.7574,20.7214,14.064)"
       gradientUnits="userSpaceOnUse"
       id="radialGradient3163"
       r="40.0294">
      <stop
         id="stop3165"
         offset="0"
         style="stop-color:#000000;stop-opacity:1;" />
      <stop
         id="stop3175"
         offset="1"
         style="stop-color:#666666;stop-opacity:1;" />
    </radialGradient>
    <linearGradient
       gradientTransform="translate(559.14286,-264.28571)"
       gradientUnits="userSpaceOnUse"
       id="XMLID_9_"
       x1="11.9487"
       x2="104.0518"
       y1="34"
       y2="34">
      <stop
         id="stop56"
         offset="0"
         style="stop-color:#FFFFFF" />
      <stop
         id="stop58"
         offset="0.80000001"
         style="stop-color:#ffffff;stop-opacity:0;" />
    </linearGradient>
    <radialGradient
       cx="53.1978"
       cy="59.1865"
       gradientTransform="matrix(0.6667,0,0,0.7574,20.7214,14.064)"
       gradientUnits="userSpaceOnUse"
       id="XMLID_8_"
       r="40.0294">
      <stop
         id="stop41"
         offset="0"
         style="stop-color:#323232" />
      <stop
         id="stop43"
         offset="0.2083"
         style="stop-color:#363636" />
      <stop
         id="stop45"
         offset="0.4278"
         style="stop-color:#434343" />
      <stop
         id="stop47"
         offset="0.6526"
         style="stop-color:#585858" />
      <stop
         id="stop49"
         offset="0.8796"
         style="stop-color:#757575" />
      <stop
         id="stop51"
         offset="1"
         style="stop-color:#888888" />
    </radialGradient>
    <radialGradient
       cx="58"
       cy="58"
       gradientTransform="translate(559.14286,-264.28571)"
       gradientUnits="userSpaceOnUse"
       id="XMLID_7_"
       r="48">
      <stop
         id="stop26"
         offset="0"
         style="stop-color:#FFFFFF" />
      <stop
         id="stop28"
         offset="0.574"
         style="stop-color:#FFFFFF" />
      <stop
         id="stop30"
         offset="0.6842"
         style="stop-color:#FBFBFB" />
      <stop
         id="stop32"
         offset="0.8001"
         style="stop-color:#EEEEEE" />
      <stop
         id="stop34"
         offset="0.9"
         style="stop-color:#DDDDDD" />
      <stop
         id="stop36"
         offset="1"
         style="stop-color:#BBBBBB" />
    </radialGradient>
    <filter
       id="AI_Sfocatura_4">
      <feGaussianBlur
         id="feGaussianBlur6"
         stdDeviation="4" />
    </filter>
    <linearGradient
       gradientUnits="userSpaceOnUse"
       id="XMLID_6_"
       x1="58.0005"
       x2="58.0005"
       y1="116"
       y2="4.882812e-04">
      <stop
         id="stop9"
         offset="0"
         style="stop-color:#555555" />
      <stop
         id="stop11"
         offset="0.2736"
         style="stop-color:#595959" />
      <stop
         id="stop13"
         offset="0.562"
         style="stop-color:#666666" />
      <stop
         id="stop15"
         offset="0.8561"
         style="stop-color:#7B7B7B" />
      <stop
         id="stop17"
         offset="1"
         style="stop-color:#888888" />
    </linearGradient>
    <linearGradient
       gradientTransform="matrix(-1,0,0,-1,122,122)"
       gradientUnits="userSpaceOnUse"
       id="linearGradient3242"
       inkscape:collect="always"
       x1="11.9487"
       x2="104.0518"
       xlink:href="#XMLID_9_"
       y1="34"
       y2="34" />
    <radialGradient
       cx="58"
       cy="58"
       gradientTransform="matrix(-1.0833333,0,0,-1.0833333,126.83334,126.83333)"
       gradientUnits="userSpaceOnUse"
       id="radialGradient3246"
       inkscape:collect="always"
       r="48"
       xlink:href="#XMLID_7_" />
    <linearGradient
       gradientUnits="userSpaceOnUse"
       id="linearGradient3251"
       inkscape:collect="always"
       x1="58.0005"
       x2="58.0005"
       xlink:href="#XMLID_6_"
       y1="116"
       y2="4.882812e-04" />
    <radialGradient
       cx="53.1978"
       cy="59.186501"
       gradientTransform="matrix(0.6667,0,0,0.7574,20.7214,14.064)"
       gradientUnits="userSpaceOnUse"
       id="radialGradient3253"
       inkscape:collect="always"
       r="40.0294"
       xlink:href="#radialGradient3163" />
  </defs>
  <sodipodi:namedview
     bordercolor="#666666"
     borderopacity="1.0"
     gridtolerance="10000"
     guidetolerance="10"
     height="128px"
     id="base"
     inkscape:current-layer="layer1"
     inkscape:cx="62"
     inkscape:cy="16.281828"
     inkscape:document-units="px"
     inkscape:pageopacity="0.0"
     inkscape:pageshadow="2"
     inkscape:window-height="776"
     inkscape:window-width="1231"
     inkscape:window-x="49"
     inkscape:window-y="24"
     inkscape:zoom="1"
     objecttolerance="10"
     pagecolor="#ffffff"
     showgrid="true"
     width="128px"
     inkscape:window-maximized="1">
    <inkscape:grid
       id="GridFromPre046Settings"
       type="xygrid"
       originx="0px"
       originy="0px"
       spacingx="8px"
       spacingy="8px"
       color="#3f3fff"
       empcolor="#3f3fff"
       opacity="0.15"
       empopacity="0.38"
       empspacing="5" />
  </sodipodi:namedview>
  <g
     id="layer1"
     inkscape:groupmode="layer"
     inkscape:label="Layer 1">
    <circle
       cx="58"
       cy="58"
       id="circle19"
       r="58"
       sodipodi:cx="58"
       sodipodi:cy="58"
       sodipodi:rx="58"
       sodipodi:ry="58"
       style="fill:url(#linearGradient3251)"
       transform="matrix(-1.1034483,0,0,-1.1034483,128,128)" />
    <g
       id="g21"
       style="opacity:0.8;filter:url(#AI_Sfocatura_4)"
       transform="matrix(-1.0833333,0,0,-1.0833333,126.83333,126.83333)">
      <path
         d="m 10,58 c 0,26.467 21.533,48 48,48 26.467,0 48,-21.533 48,-48 C 106,31.533 84.467,10 58,10 31.533,10 10,31.533 10,58 z"
         id="path23"
         inkscape:connector-curvature="0" />
    </g>
    <path
       d="M 116,63.999998 C 116,35.327416 92.672589,11.999997 64.000005,11.999997 c -28.672586,0 -52.000002,23.327419 -52.000002,52.000001 C 12.000003,92.672582 35.327419,116 64.000005,116 92.672589,116 116,92.672582 116,63.999998 z"
       id="path38"
       style="fill:url(#radialGradient3246)"
       inkscape:connector-curvature="0" />
    <polygon
       id="polygon53"
       points="42,90 42,26 42,26 90,58 "
       style="fill:url(#radialGradient3253);fill-opacity:1"
       transform="matrix(-1,0,0,-1,122,122)" />
    <path
       d="m 64.000005,63.999998 c -17.789001,0 -33.967008,5.129999 -46.051992,13.508999 C 23.800013,97.417997 42.224004,112 64.000005,112 85.777004,112 104.201,97.416998 110.051,77.508997 97.968003,69.129997 81.790004,63.999998 64.000005,63.999998 z"
       id="path60"
       style="opacity:0.5;fill:url(#linearGradient3242)"
       inkscape:connector-curvature="0" />
  </g>
</svg>

<?xml version="1.0" encoding="UTF-8" standalone="no"?>
<!-- Created with Inkscape (http://www.inkscape.org/) -->
<svg id="svg3186" xmlns:rdf="http://www.w3.org/1999/02/22-rdf-syntax-ns#" xmlns="http://www.w3.org/2000/svg" height="128" width="128" version="1.0" xmlns:cc="http://creativecommons.org/ns#" xmlns:xlink="http://www.w3.org/1999/xlink" xmlns:dc="http://purl.org/dc/elements/1.1/">
 <metadata id="metadata3275">
  <rdf:RDF>
   <cc:Work rdf:about="">
    <dc:title/>
    <dc:description/>
    <dc:subject>
     <rdf:Bag>
      <rdf:li>unsorted</rdf:li>
     </rdf:Bag>
    </dc:subject>
    <dc:publisher>
     <cc:Agent rdf:about="http://www.openclipart.org/">
      <dc:title>Open Clip Art Library, Source: Oxygen Icons, Source: Oxygen Icons, Source: Oxygen Icons, Source: Oxygen Icons</dc:title>
     </cc:Agent>
    </dc:publisher>
    <dc:creator>
     <cc:Agent>
      <dc:title/>
     </cc:Agent>
    </dc:creator>
    <dc:rights>
     <cc:Agent>
      <dc:title/>
     </cc:Agent>
    </dc:rights>
    <dc:date/>
    <dc:format>image/svg+xml</dc:format>
    <dc:type rdf:resource="http://purl.org/dc/dcmitype/StillImage"/>
    <cc:license rdf:resource="http://creativecommons.org/licenses/by-sa/3.0/ or http://creativecommons.org/licenses/LGPL/2.1/"/>
    <dc:language>en</dc:language>
   </cc:Work>
  </rdf:RDF>
 </metadata>
 <defs id="defs3188">
  <filter id="AI_Sfocatura_4">
   <feGaussianBlur id="feGaussianBlur6" stdDeviation="4"/>
  </filter>
  <linearGradient id="linearGradient3242" y2="34" gradientUnits="userSpaceOnUse" y1="34" gradientTransform="matrix(-1,0,0,-1,122,122)" x2="104.05" x1="11.949">
   <stop id="stop56" stop-color="#fff" offset="0"/>
   <stop id="stop58" stop-color="#fff" stop-opacity="0" offset="0.8"/>
  </linearGradient>
  <radialGradient id="radialGradient3246" gradientUnits="userSpaceOnUse" cy="58" cx="58" gradientTransform="matrix(-1.0833 0 0 -1.0833 126.83 126.83)" r="48">
   <stop id="stop26" stop-color="#fff" offset="0"/>
   <stop id="stop28" stop-color="#fff" offset=".574"/>
   <stop id="stop30" stop-color="#FBFBFB" offset=".6842"/>
   <stop id="stop32" stop-color="#eee" offset=".8001"/>
   <stop id="stop34" stop-color="#ddd" offset=".9"/>
   <stop id="stop36" stop-color="#bbb" offset="1"/>
  </radialGradient>
  <linearGradient id="linearGradient3251" y2=".00048828" gradientUnits="userSpaceOnUse" y1="116" x2="58" x1="58">
   <stop id="stop9" stop-color="#555" offset="0"/>
   <stop id="stop11" stop-color="#595959" offset=".2736"/>
   <stop id="stop13" stop-color="#666" offset=".562"/>
   <stop id="stop15" stop-color="#7B7B7B" offset=".8561"/>
   <stop id="stop17" stop-color="#888" offset="1"/>
  </linearGradient>
  <radialGradient id="radialGradient3253" gradientUnits="userSpaceOnUse" cy="59.187" cx="53.198" gradientTransform="matrix(.6667 0 0 .7574 20.721 14.064)" r="40.029">
   <stop id="stop3165" offset="0"/>
   <stop id="stop3175" stop-color="#666" offset="1"/>
  </radialGradient>
 </defs>
 <g id="layer1">
  <circle id="circle19" cy="58" transform="matrix(-1.1034 0 0 -1.1034 128 128)" cx="58" r="58" fill="url(#linearGradient3251)"/>
  <g id="g21" opacity=".8" filter="url(#AI_Sfocatura_4)" transform="matrix(-1.0833 0 0 -1.0833 126.83 126.83)">
   <path id="path23" d="m10 58c0 26.467 21.533 48 48 48s48-21.533 48-48-21.533-48-48-48-48 21.533-48 48z"/>
  </g>
  <path id="path38" fill="url(#radialGradient3246)" d="m116 64c0-28.673-23.327-52-52-52s-52 23.327-52 52 23.327 52 52 52 52-23.327 52-52z"/>
  <polygon id="polygon53" transform="matrix(-1,0,0,-1,122,122)" points="42 90 42 26 42 26 90 58" fill="url(#radialGradient3253)"/>
  <path id="path60" opacity=".5" fill="url(#linearGradient3242)" d="m64 64c-17.789 0-33.967 5.13-46.052 13.509 5.852 19.909 24.276 34.491 46.052 34.491 21.777 0 40.2-14.583 46.05-34.491-12.082-8.379-28.26-13.509-46.05-13.509z"/>
 </g>
</svg>
